X: 2
T: The Woods Of Old Limerick
R: jig
M: 6/8
L: 1/8
K: Fmaj
|: G |AFF GAB | cff ecB | AFF GAB | GCC GAB |
AFF GAB | cff ecB | AFF GAB | GFE F2 :|
|: f/g/ |aff fgf | ecc cfg | aff fga | bge ffg |
agf gfe | fgf ecB | AFF GAB | GFE F2 :|


Tune 3893	Setting 22943

